assets/logos/yelp.svg

<?xml version="1.0" encoding="UTF-8" standalone="no"?>
<!-- Created with Inkscape (http://www.inkscape.org/) -->

<svg
   xmlns:dc="http://purl.org/dc/elements/1.1/"
   xmlns:cc="http://creativecommons.org/ns#"
   xmlns:rdf="http://www.w3.org/1999/02/22-rdf-syntax-ns#"
   xmlns:svg="http://www.w3.org/2000/svg"
   xmlns="http://www.w3.org/2000/svg"
   version="1.1"
   width="300"
   height="146.37318"
   id="svg6640">
  <defs
     id="defs6642">
    <clipPath
       id="clipPath1342">
      <path
         d="m 406.788,304.001 -60.901,0 0,-29.714 60.901,0 L 406.788,304.001 Z"
         id="path1344" />
    </clipPath>
  </defs>
  <metadata
     id="metadata6645">
    <rdf:RDF>
      <cc:Work
         rdf:about="">
        <dc:format>image/svg+xml</dc:format>
        <dc:type
           rdf:resource="http://purl.org/dc/dcmitype/StillImage" />
        <cc:license
           rdf:resource="" />
        <dc:title></dc:title>
      </cc:Work>
    </rdf:RDF>
  </metadata>
  <g
     transform="translate(-559.08003,-313.13162)"
     id="layer1">
    <g
       transform="matrix(3.9408543,0,0,3.9408543,-960.05773,-2371.0274)"
       id="g6545">
      <g
         transform="matrix(1.25,0,0,-1.25,-46.875,1061.1122)"
         id="g1338">
        <g
           clip-path="url(#clipPath1342)"
           id="g1340">
          <g
             transform="translate(405.717,287.389)"
             id="g1346">
            <path
               d="m 0,0 c -0.389,0.294 -0.453,0.339 -2.791,1.109 2.025,0.498 2.112,0.551 2.471,0.787 0.813,0.551 1.247,1.465 1.184,2.455 L 0.856,4.459 c -0.165,1.589 -2.212,4.587 -3.59,5.26 -0.909,0.434 -1.92,0.373 -2.716,-0.162 -0.375,-0.248 -0.425,-0.282 -1.964,-2.383 -0.15,2.455 -0.439,6.784 -0.51,7.189 l -0.015,0.093 -0.023,0.09 c -0.263,0.951 -1.009,1.665 -1.997,1.913 -1.649,0.411 -6.01,-0.818 -7.18,-2.024 -0.687,-0.717 -0.951,-1.682 -0.714,-2.587 l 0.048,-0.18 0.081,-0.167 c 0.112,-0.231 0.407,-0.72 2.938,-4.691 l 0.933,-1.47 c -2.266,0.927 -2.356,0.93 -2.825,0.934 -0.893,0.039 -1.788,-0.439 -2.327,-1.283 l -0.01,-0.016 c -0.278,-0.448 -0.45,-1.057 -0.557,-1.695 -0.73,0.984 -1.829,1.773 -3.495,2.1 -1.181,0.237 -2.289,0.094 -3.333,-0.328 -0.956,0.61 -2.27,0.681 -3.369,0.054 -0.339,-0.193 -0.593,-0.423 -0.792,-0.668 l 0,1.348 -0.105,0.801 -0.032,0.144 c -0.221,0.869 -0.877,1.602 -1.755,1.962 l -0.008,0.004 c -0.964,0.389 -2.045,0.296 -2.962,-0.253 -0.977,-0.577 -1.478,-1.535 -1.478,-2.845 l 0,-2.749 c -0.348,0.542 -0.778,1.012 -1.287,1.398 -1.372,1.04 -3.212,1.391 -5.318,1.013 -1.221,-0.212 -2.242,-0.745 -3.051,-1.527 -0.013,0.025 -0.026,0.056 -0.039,0.081 -0.411,0.736 -1.078,1.242 -1.932,1.466 -1.426,0.391 -3.236,-0.094 -3.983,-2.644 0,0 -0.121,-0.412 -0.287,-0.975 -0.327,0.6 -1.175,2.239 -1.21,2.288 -0.764,1.158 -2.294,1.66 -3.662,1.116 -1.322,-0.498 -2.087,-1.661 -2.087,-3.028 0,-0.431 0.075,-0.88 0.232,-1.336 l 0.039,-0.111 c 0,0 2.716,-5.532 3.502,-7.133 -1.263,-0.333 -2.163,-1.275 -2.309,-2.567 -0.015,-0.123 -0.023,-0.247 -0.023,-0.369 0,-0.822 0.341,-1.607 0.967,-2.183 0.95,-0.877 2.426,-1.167 4.159,-0.812 1.883,0.37 2.966,1.505 3.725,3.912 l 1.155,3.629 c 0.376,-1.528 1.06,-2.526 1.709,-3.166 0.933,-0.923 2.642,-1.944 5.471,-1.562 2.102,0.294 3.557,1.235 4.343,2.341 l 0.051,-0.267 c 0.224,-0.789 0.833,-1.49 1.651,-1.863 0.855,-0.396 1.845,-0.389 2.713,0.018 0.453,0.197 0.837,0.508 1.136,0.897 l 0,-1.144 c 0,-1.891 1.094,-2.695 1.746,-3.007 0.851,-0.428 1.87,-0.462 2.757,-0.077 0.838,0.363 1.46,1.054 1.704,1.893 l 0.038,0.129 0.114,0.78 c 0,0 0,0.301 0,0.335 1.137,-0.116 2.324,0.069 3.369,0.611 0.462,0.24 0.866,0.529 1.227,0.861 l 0.768,0 c 0.418,-0.22 0.893,-0.357 1.404,-0.357 0.513,0 0.987,0.137 1.404,0.357 l 2.227,0 c 1.475,-0.83 3.631,-1.459 4.785,-1.261 0.994,0.176 1.777,0.816 2.108,1.713 l 0.017,0.045 c 0.14,0.408 0.163,0.484 0.173,2.789 1.264,-2.042 1.33,-2.096 1.685,-2.376 0.763,-0.595 1.766,-0.726 2.692,-0.353 1.487,0.597 3.759,3.485 3.987,5.07 0.019,0.138 0.03,0.278 0.03,0.415 C 0.999,-1.281 0.641,-0.512 0,0 z m -23.075,5.382 c 0.003,-0.002 0.005,-0.002 0.008,-0.002 0.002,-0.002 0.004,-0.002 0.007,-0.002 L -23.075,5.382 z m 20.059,-12.978 -0.002,0 c -0.003,0 -0.004,-0.003 -0.007,-0.004 l 0.009,0.004"
               id="path1348"
               style="fill:#ffffff;fill-opacity:1;fill-rule:nonzero;stroke:none" />
          </g>
          <g
             transform="translate(405.717,287.389)"
             id="g1350">
            <path
               d="m 0,0 c -0.389,0.294 -0.453,0.339 -2.791,1.109 2.025,0.498 2.112,0.551 2.471,0.787 0.813,0.551 1.247,1.465 1.184,2.455 L 0.856,4.459 c -0.165,1.589 -2.212,4.587 -3.59,5.26 -0.909,0.434 -1.92,0.373 -2.716,-0.162 -0.375,-0.248 -0.425,-0.282 -1.964,-2.383 -0.15,2.455 -0.439,6.784 -0.51,7.189 l -0.015,0.093 -0.023,0.09 c -0.263,0.951 -1.009,1.665 -1.997,1.913 -1.649,0.411 -6.01,-0.818 -7.18,-2.024 -0.687,-0.717 -0.951,-1.682 -0.714,-2.587 l 0.048,-0.18 0.081,-0.167 c 0.112,-0.231 0.407,-0.72 2.938,-4.691 l 0.933,-1.47 c -2.266,0.927 -2.356,0.93 -2.825,0.934 -0.893,0.039 -1.788,-0.439 -2.327,-1.283 l -0.01,-0.016 c -0.278,-0.448 -0.45,-1.057 -0.557,-1.695 -0.73,0.984 -1.829,1.773 -3.495,2.1 -1.181,0.237 -2.289,0.094 -3.333,-0.328 -0.956,0.61 -2.27,0.681 -3.369,0.054 -0.339,-0.193 -0.593,-0.423 -0.792,-0.668 l 0,1.348 -0.105,0.801 -0.032,0.144 c -0.221,0.869 -0.877,1.602 -1.755,1.962 l -0.008,0.004 c -0.964,0.389 -2.045,0.296 -2.962,-0.253 -0.977,-0.577 -1.478,-1.535 -1.478,-2.845 l 0,-2.749 c -0.348,0.542 -0.778,1.012 -1.287,1.398 -1.372,1.04 -3.212,1.391 -5.318,1.013 -1.221,-0.212 -2.242,-0.745 -3.051,-1.527 -0.013,0.025 -0.026,0.056 -0.039,0.081 -0.411,0.736 -1.078,1.242 -1.932,1.466 -1.426,0.391 -3.236,-0.094 -3.983,-2.644 0,0 -0.121,-0.412 -0.287,-0.975 -0.327,0.6 -1.175,2.239 -1.21,2.288 -0.764,1.158 -2.294,1.66 -3.662,1.116 -1.322,-0.498 -2.087,-1.661 -2.087,-3.028 0,-0.431 0.075,-0.88 0.232,-1.336 l 0.039,-0.111 c 0,0 2.716,-5.532 3.502,-7.133 -1.263,-0.333 -2.163,-1.275 -2.309,-2.567 -0.015,-0.123 -0.023,-0.247 -0.023,-0.369 0,-0.822 0.341,-1.607 0.967,-2.183 0.95,-0.877 2.426,-1.167 4.159,-0.812 1.883,0.37 2.966,1.505 3.725,3.912 l 1.155,3.629 c 0.376,-1.528 1.06,-2.526 1.709,-3.166 0.933,-0.923 2.642,-1.944 5.471,-1.562 2.102,0.294 3.557,1.235 4.343,2.341 l 0.051,-0.267 c 0.224,-0.789 0.833,-1.49 1.651,-1.863 0.855,-0.396 1.845,-0.389 2.713,0.018 0.453,0.197 0.837,0.508 1.136,0.897 l 0,-1.144 c 0,-1.891 1.094,-2.695 1.746,-3.007 0.851,-0.428 1.87,-0.462 2.757,-0.077 0.838,0.363 1.46,1.054 1.704,1.893 l 0.038,0.129 0.114,0.78 c 0,0 0,0.301 0,0.335 1.137,-0.116 2.324,0.069 3.369,0.611 0.462,0.24 0.866,0.529 1.227,0.861 l 0.768,0 c 0.418,-0.22 0.893,-0.357 1.404,-0.357 0.513,0 0.987,0.137 1.404,0.357 l 2.227,0 c 1.475,-0.83 3.631,-1.459 4.785,-1.261 0.994,0.176 1.777,0.816 2.108,1.713 l 0.017,0.045 c 0.14,0.408 0.163,0.484 0.173,2.789 1.264,-2.042 1.33,-2.096 1.685,-2.376 0.763,-0.595 1.766,-0.726 2.692,-0.353 1.487,0.597 3.759,3.485 3.987,5.07 0.019,0.138 0.03,0.278 0.03,0.415 C 0.999,-1.281 0.641,-0.512 0,0 Z"
               id="path1352"
               style="fill:none;stroke:#bdbcbc;stroke-width:0.145;stroke-linecap:round;stroke-linejoin:round;stroke-miterlimit:4;stroke-opacity:1;stroke-dasharray:none" />
            <g
               transform="translate(-23.075,5.382)"
               id="g1354">
              <path
                 d="M 0,0 C 0.004,-0.002 0.005,-0.002 0.008,-0.002 0.011,-0.004 0.012,-0.004 0.016,-0.004 L 0,0 Z"
                 id="path1356"
                 style="fill:none;stroke:#bdbcbc;stroke-width:0.145;stroke-linecap:round;stroke-linejoin:round;stroke-miterlimit:4;stroke-opacity:1;stroke-dasharray:none" />
              <g
                 transform="translate(20.06,-12.978)"
                 id="g1358">
                <path
                   d="M 0,0 -0.003,0 C -0.005,0 -0.006,-0.003 -0.009,-0.004 L 0,0 Z"
                   id="path1360"
                   style="fill:none;stroke:#bdbcbc;stroke-width:0.145;stroke-linecap:round;stroke-linejoin:round;stroke-miterlimit:4;stroke-opacity:1;stroke-dasharray:none" />
              </g>
            </g>
          </g>
        </g>
      </g>
      <g
         transform="matrix(1.25,0,0,-1.25,438.16125,697.87345)"
         id="g1362">
        <path
           d="m 0,0 c -0.361,-0.578 -0.512,-2.394 -0.387,-3.601 0.043,-0.398 0.114,-0.73 0.221,-0.927 0.144,-0.275 0.386,-0.439 0.662,-0.448 0.175,-0.009 0.286,0.02 3.614,1.093 0,0 1.479,0.47 1.487,0.473 0.366,0.095 0.616,0.433 0.64,0.866 0.024,0.445 -0.207,0.836 -0.583,0.978 0,0 -1.044,0.426 -1.044,0.426 C 1.032,0.336 0.873,0.392 0.691,0.394 0.416,0.407 0.171,0.266 0,0"
           id="path1364"
           style="fill:#e9e9e9;fill-opacity:1;fill-rule:nonzero;stroke:none" />
      </g>
      <g
         transform="matrix(1.25,0,0,-1.25,448.16,711.61345)"
         id="g1366">
        <path
           d="m 0,0 c 0.059,0.168 0.065,0.283 0.074,3.779 0,0 0.009,1.545 0.012,1.562 0.022,0.376 -0.222,0.722 -0.624,0.877 -0.413,0.16 -0.858,0.062 -1.109,-0.25 0,0 -0.728,-0.864 -0.731,-0.865 C -4.883,2.158 -4.988,2.024 -5.048,1.848 -5.086,1.746 -5.101,1.638 -5.089,1.528 -5.073,1.373 -5.004,1.216 -4.885,1.076 -4.305,0.383 -1.518,-0.642 -0.63,-0.49 -0.321,-0.434 -0.095,-0.258 0,0"
           id="path1368"
           style="fill:#e9e9e9;fill-opacity:1;fill-rule:nonzero;stroke:none" />
      </g>
      <g
         transform="matrix(1.25,0,0,-1.25,455.2225,710.0922)"
         id="g1370">
        <path
           d="M 0,0 C 0.842,0.335 2.676,2.667 2.804,3.563 2.848,3.876 2.751,4.144 2.535,4.317 2.396,4.423 2.285,4.464 -1.038,5.556 c 0,0 -1.461,0.482 -1.477,0.49 C -2.87,6.184 -3.272,6.057 -3.543,5.722 -3.825,5.379 -3.869,4.928 -3.642,4.585 L -3.055,3.63 C -1.08,0.422 -0.931,0.196 -0.789,0.084 -0.569,-0.087 -0.288,-0.118 0,0"
           id="path1372"
           style="fill:#e9e9e9;fill-opacity:1;fill-rule:nonzero;stroke:none" />
      </g>
      <g
         transform="matrix(1.25,0,0,-1.25,453.07875,699.7722)"
         id="g1374">
        <path
           d="m 0,0 c 3.78,0.914 3.925,0.962 4.075,1.06 0.229,0.156 0.342,0.412 0.323,0.729 0,0.011 0.001,0.02 0,0.031 C 4.3,2.747 2.675,5.162 1.874,5.554 1.589,5.689 1.305,5.68 1.071,5.524 0.925,5.426 0.816,5.286 -1.206,2.516 c 0,0 -0.915,-1.246 -0.926,-1.257 -0.241,-0.292 -0.244,-0.713 -0.01,-1.074 0.243,-0.373 0.657,-0.555 1.035,-0.45 0,0 -0.017,-0.026 -0.02,-0.032 C -0.942,-0.226 -0.606,-0.144 0,0"
           id="path1376"
           style="fill:#e9e9e9;fill-opacity:1;fill-rule:nonzero;stroke:none" />
      </g>
      <g
         transform="matrix(1.25,0,0,-1.25,448.33375,695.87095)"
         id="g1378">
        <path
           d="m 0,0 c -0.066,1.498 -0.515,8.167 -0.568,8.475 -0.077,0.282 -0.296,0.481 -0.611,0.56 -0.963,0.24 -4.652,-0.795 -5.335,-1.5 -0.218,-0.228 -0.3,-0.511 -0.235,-0.761 0.107,-0.22 4.676,-7.409 4.676,-7.409 0.676,-1.096 1.227,-0.925 1.407,-0.869 C -0.486,-1.448 0.062,-1.277 0,0"
           id="path1380"
           style="fill:#e9e9e9;fill-opacity:1;fill-rule:nonzero;stroke:none" />
      </g>
      <g
         transform="matrix(1.25,0,0,-1.25,438.53875,696.92845)"
         id="g1382">
        <path
           d="m 0,0 c -0.36,-0.577 -0.512,-2.394 -0.387,-3.6 0.044,-0.398 0.116,-0.73 0.221,-0.928 0.144,-0.274 0.386,-0.437 0.662,-0.447 0.177,-0.009 0.287,0.021 3.615,1.091 0,0 1.479,0.472 1.485,0.475 0.369,0.094 0.617,0.433 0.641,0.866 0.024,0.444 -0.205,0.836 -0.583,0.978 0,0 -1.043,0.425 -1.045,0.425 C 1.033,0.335 0.872,0.393 0.692,0.395 0.416,0.406 0.171,0.267 0,0"
           id="path1384"
           style="fill:#bf2519;fill-opacity:1;fill-rule:nonzero;stroke:none" />
      </g>
      <g
         transform="matrix(1.25,0,0,-1.25,448.53875,710.66595)"
         id="g1386">
        <path
           d="m 0,0 c 0.058,0.168 0.065,0.283 0.075,3.779 0,0 0.008,1.545 0.009,1.56 0.024,0.379 -0.221,0.724 -0.622,0.878 -0.413,0.159 -0.858,0.061 -1.108,-0.25 0,0 -0.73,-0.866 -0.732,-0.866 C -4.883,2.158 -4.988,2.022 -5.049,1.848 -5.086,1.746 -5.101,1.636 -5.089,1.527 -5.074,1.371 -5.003,1.217 -4.886,1.073 -4.305,0.383 -1.519,-0.642 -0.629,-0.49 -0.32,-0.434 -0.095,-0.26 0,0"
           id="path1388"
           style="fill:#bf2519;fill-opacity:1;fill-rule:nonzero;stroke:none" />
      </g>
      <g
         transform="matrix(1.25,0,0,-1.25,455.60375,709.1447)"
         id="g1390">
        <path
           d="M 0,0 C 0.84,0.335 2.672,2.666 2.801,3.563 2.846,3.875 2.748,4.144 2.533,4.316 2.392,4.422 2.285,4.463 -1.041,5.555 c 0,0 -1.459,0.482 -1.478,0.491 C -2.872,6.183 -3.275,6.056 -3.546,5.722 -3.828,5.379 -3.87,4.926 -3.645,4.584 L -3.058,3.628 C -1.084,0.422 -0.933,0.195 -0.791,0.084 -0.571,-0.089 -0.291,-0.117 0,0"
           id="path1392"
           style="fill:#bf2519;fill-opacity:1;fill-rule:nonzero;stroke:none" />
      </g>
      <g
         transform="matrix(1.25,0,0,-1.25,453.455,698.8272)"
         id="g1394">
        <path
           d="m 0,0 c 3.78,0.916 3.926,0.964 4.075,1.062 0.229,0.154 0.344,0.412 0.324,0.726 0,0.01 0.002,0.021 0,0.032 C 4.302,2.748 2.676,5.162 1.875,5.554 1.591,5.69 1.307,5.681 1.071,5.523 0.925,5.428 0.818,5.284 -1.206,2.516 c 0,0 -0.914,-1.245 -0.925,-1.257 -0.241,-0.293 -0.245,-0.713 -0.009,-1.073 0.244,-0.373 0.656,-0.555 1.034,-0.45 0,0 -0.015,-0.027 -0.019,-0.032 C -0.939,-0.226 -0.606,-0.144 0,0"
           id="path1396"
           style="fill:#bf2519;fill-opacity:1;fill-rule:nonzero;stroke:none" />
      </g>
      <g
         transform="matrix(1.25,0,0,-1.25,448.7125,694.92595)"
         id="g1398">
        <path
           d="m 0,0 c -0.065,1.498 -0.516,8.168 -0.569,8.477 -0.076,0.28 -0.295,0.48 -0.609,0.559 -0.965,0.239 -4.653,-0.794 -5.336,-1.499 -0.22,-0.229 -0.301,-0.511 -0.235,-0.761 0.108,-0.221 4.677,-7.41 4.677,-7.41 0.675,-1.095 1.226,-0.925 1.407,-0.868 C -0.486,-1.447 0.062,-1.277 0,0"
           id="path1400"
           style="fill:#bf2519;fill-opacity:1;fill-rule:nonzero;stroke:none" />
      </g>
      <g
         transform="matrix(1.25,0,0,-1.25,390.21,714.68845)"
         id="g1402">
        <path
           d="M 0,0 C 0.476,-0.441 1.378,-0.566 2.474,-0.343 3.501,-0.14 4.138,0.319 4.751,2.268 L 7.804,11.86 C 7.962,12.369 7.95,12.811 7.769,13.139 7.622,13.403 7.377,13.582 7.031,13.674 6.487,13.823 5.808,13.808 5.38,12.346 L 3.778,6.905 c 0,0 -3.263,6.164 -3.265,6.165 -0.206,0.412 -0.81,0.707 -1.425,0.463 -0.802,-0.305 -1.069,-1.026 -0.749,-1.955 0,0 3.969,-8.077 3.978,-8.099 0,0 0.108,-0.288 0.108,-0.335 0,0 0.036,-0.219 0.036,-0.227 C 2.453,2.606 2.349,2.344 2.163,2.169 1.98,1.997 1.726,1.907 1.429,1.919 c 0,0 -0.619,0.014 -0.666,0.014 C 0.127,1.855 -0.273,1.49 -0.337,0.926 -0.382,0.563 -0.265,0.244 0,0"
           id="path1404"
           style="fill:#231f20;fill-opacity:1;fill-rule:nonzero;stroke:none" />
      </g>
      <g
         transform="matrix(1.25,0,0,-1.25,409.75875,703.3197)"
         id="g1406">
        <path
           d="m 0,0 -4.25,0 c -0.115,0.084 -0.171,0.225 -0.085,0.649 0.054,0.223 0.112,0.423 0.282,0.703 0.055,0.084 0.112,0.17 0.167,0.256 0.311,0.393 0.732,0.645 1.211,0.757 C -1.181,2.73 -0.139,1.971 0.03,0.676 0.111,0.111 0.058,0 0,0 Z M 2.612,0.74 C 2.475,2.126 1.94,3.208 1.063,3.871 0.129,4.58 -1.193,4.806 -2.758,4.526 c -1.962,-0.34 -3.14,-1.742 -3.41,-4.06 -0.332,-2.771 0.124,-4.859 1.323,-6.04 0.904,-0.893 2.241,-1.248 3.867,-1.028 2.319,0.326 3.362,1.599 3.362,2.404 0,0.592 -0.358,1.058 -0.884,1.129 -0.301,0.06 -0.555,0 -1.117,-0.503 -0.81,-0.706 -1.749,-0.99 -2.581,-0.779 -0.634,0.161 -1.129,0.598 -1.353,1.197 0,0 -0.1,0.396 -0.094,0.352 -0.068,0.357 -0.099,0.711 0.121,0.855 l 0.059,0.04 5.094,0 c 0.47,0 0.708,0.061 0.845,0.209 0.28,0.311 0.258,1.199 0.138,2.438"
           id="path1408"
           style="fill:#231f20;fill-opacity:1;fill-rule:nonzero;stroke:none" />
      </g>
      <g
         transform="matrix(1.25,0,0,-1.25,418.79625,693.2322)"
         id="g1410">
        <path
           d="m 0,0 c -0.403,0.164 -0.858,0.12 -1.257,-0.118 -0.384,-0.227 -0.544,-0.573 -0.544,-1.198 l 0,-12.146 c 0,0 0.067,-0.434 0.074,-0.453 0.086,-0.303 0.31,-0.561 0.621,-0.702 0.345,-0.16 0.743,-0.157 1.099,0.01 0.443,0.192 0.704,0.635 0.704,1.184 l 0,12.169 c 0,0 -0.077,0.588 -0.077,0.599 C 0.549,-0.373 0.316,-0.129 0,0"
           id="path1412"
           style="fill:#231f20;fill-opacity:1;fill-rule:nonzero;stroke:none" />
      </g>
      <g
         transform="matrix(1.25,0,0,-1.25,430.81125,708.65345)"
         id="g1414">
        <path
           d="m 0,0 c -1.682,0 -1.95,1.493 -2.003,2.62 -0.003,0.003 -0.022,0.66 -0.022,0.66 0,0 0.019,0.488 0.019,0.507 0.109,1.95 0.512,2.719 1.541,2.933 C 0.226,6.88 0.754,6.802 1.15,6.483 1.745,6.004 2.007,4.99 1.983,3.298 1.966,1.317 1.621,0 0,0 z m 0.125,8.918 c -1.127,0.23 -2.091,0.037 -3.018,-0.591 0,0 -0.104,-0.084 -0.144,-0.108 L -3.12,8.177 -3.374,8.063 -3.446,8.348 -3.507,8.451 -3.528,8.515 -3.535,8.534 c 0,0 -0.062,0.083 -0.071,0.096 C -3.872,9.044 -4.595,9.234 -5.247,8.862 -5.566,8.681 -5.749,8.426 -5.749,7.665 l 0,-11.921 c 0,-0.653 0.205,-1.059 0.653,-1.273 0.378,-0.19 0.803,-0.205 1.168,-0.048 0.31,0.136 0.538,0.376 0.623,0.668 l 0.075,0.511 0,2.063 -0.022,0.332 0.009,0.098 0.013,0.047 0.123,0.393 0.373,-0.248 c 0,0 0.094,-0.062 0.134,-0.104 l 0.112,-0.074 c 10e-4,-10e-4 0.13,-0.076 0.13,-0.076 0.002,0 0.12,-0.058 0.12,-0.058 1,-0.472 2.338,-0.417 3.415,0.138 1.356,0.708 2.026,1.964 2.181,4.073 0.324,4.215 -0.646,6.229 -3.233,6.732"
           id="path1416"
           style="fill:#231f20;fill-opacity:1;fill-rule:nonzero;stroke:none" />
      </g>
      <g
         transform="matrix(1.25,0,0,-1.25,437.5,709.8197)"
         id="g1418">
        <path
           d="m 0,0 0.139,0 c 0.113,0 0.219,0.006 0.219,0.133 0,0.114 -0.097,0.126 -0.184,0.126 L 0,0.259 0,0 z m -0.114,0.361 0.298,0 c 0.195,0 0.286,-0.071 0.286,-0.233 0,-0.146 -0.093,-0.207 -0.215,-0.22 l 0.235,-0.359 -0.123,0 -0.222,0.349 -0.145,0 0,-0.349 -0.114,0 L -0.114,0.361 z m 0.263,-1 c 0.329,0 0.594,0.259 0.594,0.602 C 0.743,0.3 0.478,0.56 0.149,0.56 -0.181,0.56 -0.446,0.3 -0.446,-0.044 -0.446,-0.38 -0.181,-0.639 0.149,-0.639 z m 0,1.3 c 0.384,0 0.707,-0.302 0.707,-0.698 0,-0.403 -0.323,-0.704 -0.707,-0.704 -0.385,0 -0.707,0.301 -0.707,0.697 0,0.403 0.322,0.705 0.707,0.705"
           id="path1420"
           style="fill:#231f20;fill-opacity:1;fill-rule:nonzero;stroke:none" />
      </g>
    </g>
  </g>
</svg>

<?xml version="1.0" encoding="UTF-8" standalone="no"?>
<!DOCTYPE svg PUBLIC "-//W3C//DTD SVG 1.1//EN" "http://www.w3.org/Graphics/SVG/1.1/DTD/svg11.dtd">
<svg width="100%" height="100%" viewBox="0 0 80 81" version="1.1" xmlns="http://www.w3.org/2000/svg" xmlns:xlink="http://www.w3.org/1999/xlink" xml:space="preserve" xmlns:serif="http://www.serif.com/" style="fill-rule:evenodd;clip-rule:evenodd;stroke-linejoin:round;stroke-miterlimit:2;">
    <g transform="matrix(0.732601,0,0,0.732601,-551.686,-236.549)">
        <g id="path1384" transform="matrix(4.92607,0,0,-4.92607,768.16,375.466)">
            <path d="M0,0C-0.36,-0.577 -0.512,-2.394 -0.387,-3.6C-0.343,-3.998 -0.271,-4.33 -0.166,-4.528C-0.022,-4.802 0.22,-4.965 0.496,-4.975C0.673,-4.984 0.783,-4.954 4.111,-3.884C4.111,-3.884 5.59,-3.412 5.596,-3.409C5.965,-3.315 6.213,-2.976 6.237,-2.543C6.261,-2.099 6.032,-1.707 5.654,-1.565C5.654,-1.565 4.611,-1.14 4.609,-1.14C1.033,0.335 0.872,0.393 0.692,0.395C0.416,0.406 0.171,0.267 0,0" style="fill:rgb(191,37,25);fill-rule:nonzero;"/>
        </g>
        <g id="g1386" transform="matrix(4.92607,0,0,-4.92607,807.568,429.604)">
            <path id="path1388" d="M0,0C0.058,0.168 0.065,0.283 0.075,3.779C0.075,3.779 0.083,5.324 0.084,5.339C0.108,5.718 -0.137,6.063 -0.538,6.217C-0.951,6.376 -1.396,6.278 -1.646,5.967C-1.646,5.967 -2.376,5.101 -2.378,5.101C-4.883,2.158 -4.988,2.022 -5.049,1.848C-5.086,1.746 -5.101,1.636 -5.089,1.527C-5.074,1.371 -5.003,1.217 -4.886,1.073C-4.305,0.383 -1.519,-0.642 -0.629,-0.49C-0.32,-0.434 -0.095,-0.26 0,0" style="fill:rgb(191,37,25);fill-rule:nonzero;"/>
        </g>
        <g id="g1390" transform="matrix(4.92607,0,0,-4.92607,835.41,423.609)">
            <path id="path1392" d="M0,0C0.84,0.335 2.672,2.666 2.801,3.563C2.846,3.875 2.748,4.144 2.533,4.316C2.392,4.422 2.285,4.463 -1.041,5.555C-1.041,5.555 -2.5,6.037 -2.519,6.046C-2.872,6.183 -3.275,6.056 -3.546,5.722C-3.828,5.379 -3.87,4.926 -3.645,4.584L-3.058,3.628C-1.084,0.422 -0.933,0.195 -0.791,0.084C-0.571,-0.089 -0.291,-0.117 0,0" style="fill:rgb(191,37,25);fill-rule:nonzero;"/>
        </g>
        <g id="g1394" transform="matrix(4.92607,0,0,-4.92607,826.942,382.949)">
            <path id="path1396" d="M0,0C3.78,0.916 3.926,0.964 4.075,1.062C4.304,1.216 4.419,1.474 4.399,1.788C4.399,1.798 4.401,1.809 4.399,1.82C4.302,2.748 2.676,5.162 1.875,5.554C1.591,5.69 1.307,5.681 1.071,5.523C0.925,5.428 0.818,5.284 -1.206,2.516C-1.206,2.516 -2.12,1.271 -2.131,1.259C-2.372,0.966 -2.376,0.546 -2.14,0.186C-1.896,-0.187 -1.484,-0.369 -1.106,-0.264C-1.106,-0.264 -1.121,-0.291 -1.125,-0.296C-0.939,-0.226 -0.606,-0.144 0,0" style="fill:rgb(191,37,25);fill-rule:nonzero;"/>
        </g>
        <g id="g1398" transform="matrix(4.92607,0,0,-4.92607,808.253,367.575)">
            <path id="path1400" d="M0,0C-0.065,1.498 -0.516,8.168 -0.569,8.477C-0.645,8.757 -0.864,8.957 -1.178,9.036C-2.143,9.275 -5.831,8.242 -6.514,7.537C-6.734,7.308 -6.815,7.026 -6.749,6.776C-6.641,6.555 -2.072,-0.634 -2.072,-0.634C-1.397,-1.729 -0.846,-1.559 -0.665,-1.502C-0.486,-1.447 0.062,-1.277 0,0" style="fill:rgb(191,37,25);fill-rule:nonzero;"/>
        </g>
    </g>
</svg>
